findly-builder/apps/searchassist/src/assets/icons/resultTemplate/dummy-small.svg

<svg width="20" height="18" viewBox="0 0 20 18" fill="none" xmlns="http://www.w3.org/2000/svg">
<path fill-rule="evenodd" clip-rule="evenodd" d="M2.78125 0.75C1.69946 0.75 0.8125 1.6792 0.8125 2.8125V15.1875C0.8125 16.3208 1.69946 17.25 2.78125 17.25H17.2188C18.3005 17.25 19.1875 16.3208 19.1875 15.1875V2.8125C19.1875 1.6792 18.3005 0.75 17.2188 0.75H2.78125ZM2.78125 2.125H17.2188C17.5879 2.125 17.875 2.42578 17.875 2.8125V12.8027L13.6591 8.13991C13.4563 7.91561 13.1024 7.92126 12.9068 8.15192L10.7126 10.7402L7.1428 6.79667C6.93994 6.57257 6.58617 6.57834 6.39071 6.80892L2.125 11.8413V2.8125C2.125 2.42578 2.41211 2.125 2.78125 2.125ZM13.9375 3.5C13.2146 3.5 12.625 4.11768 12.625 4.875C12.625 5.63232 13.2146 6.25 13.9375 6.25C14.6604 6.25 15.25 5.63232 15.25 4.875C15.25 4.11768 14.6604 3.5 13.9375 3.5ZM6.79053 8.40381L13.553 15.875H2.78125C2.41211 15.875 2.125 15.5742 2.125 15.1875V13.9146L6.79053 8.40381ZM13.3018 9.75195L17.875 14.8008V15.1875C17.875 15.5742 17.5879 15.875 17.2188 15.875H15.3577L11.6201 11.7393L13.3018 9.75195Z" fill="#BDC1C6"/>
</svg>

<svg width="20" height="18" fill="none" xmlns="http://www.w3.org/2000/svg"><path fill-rule="evenodd" clip-rule="evenodd" d="M2.781.75C1.7.75.812 1.68.812 2.813v12.374c0 1.134.887 2.063 1.97 2.063h14.437c1.081 0 1.968-.93 1.968-2.063V2.813C19.188 1.679 18.3.75 17.22.75H2.78Zm0 1.375H17.22c.369 0 .656.3.656.688v9.99L13.659 8.14a.5.5 0 0 0-.752.012l-2.194 2.588-3.57-3.943a.5.5 0 0 0-.752.012L2.125 11.84V2.813c0-.387.287-.688.656-.688ZM13.937 3.5c-.722 0-1.312.618-1.312 1.375s.59 1.375 1.313 1.375c.722 0 1.312-.618 1.312-1.375S14.66 3.5 13.937 3.5ZM6.792 8.404l6.762 7.471H2.781c-.369 0-.656-.3-.656-.688v-1.272l4.666-5.511Zm6.51 1.348 4.574 5.049v.386c0 .387-.287.688-.656.688h-1.861l-3.738-4.136 1.682-1.987Z" fill="#BDC1C6"/></svg>
